X:1
T:Jersey Lightning
M:2/4
L:1/8
R:Sand Jig
S:Ryan's Mammoth Collection (1883)
Z:AK/Fiddler's Companion
K:Amin
E | (A/>.B/)(c/>.d/) e/a/ z/e/ | {g}f/>e/d/>f/ (e/a/) z/e/ | {g}f/>ed/>f/ {f}e/>d/c/>f/ | {e}d/>c/B/>d/ (3c/B/A/ E |
(A/>.B/)(c/>.d/) e/a/ z/e/ | {g}f/>e/d/>f/ (e/a/) z/e/ | {g}f/>ed/>f/ {f}e/>d/c/>f/ | {e}d/>c/B/>c/ A :|
|: (e/>.f/) | (g/>.^f/)(a/>.g/) (e/c/) z/c'/ | (c'/>.b/)(d'/>.c'/) (a>.G) | (G/>.A/)B/>c/ d/>e/f/>g/ | e/>c/d/>B/ c/>d/e/>f/ |
g/>^f/a/>/g (e/c/) z/c'/ | c'/>b/d'/>c'/ a>G | G/>A/B/>c/ d/>e/f/>g/ | e/>c/d/>B/ c :|]

